static/img/kroki/84839eae7cbb8da52386d0ccc3eee421.svg

<?xml version="1.0" encoding="us-ascii" standalone="no"?><svg xmlns="http://www.w3.org/2000/svg" xmlns:xlink="http://www.w3.org/1999/xlink" contentStyleType="text/css" height="252px" preserveAspectRatio="none" style="width:552px;height:252px;" version="1.1" viewBox="0 0 552 252" width="552px" zoomAndPan="magnify"><defs/><g><!--class gcp_sql_database_instance--><g id="elem_gcp_sql_database_instance"><rect codeLine="22" fill="#3D176E" height="39.7891" id="gcp_sql_database_instance" rx="2.5" ry="2.5" style="stroke:#000D19;stroke-width:0.5;" width="265" x="7" y="206.58"/><ellipse cx="22" cy="226.4745" fill="#ADD1B2" rx="11" ry="11" style="stroke:#181818;stroke-width:1.0;"/><path d="M24.9688,232.1152 Q24.3906,232.412 23.75,232.5527 Q23.1094,232.7089 22.4063,232.7089 Q19.9063,232.7089 18.5781,231.0683 Q17.2656,229.412 17.2656,226.287 Q17.2656,223.162 18.5781,221.5058 Q19.9063,219.8495 22.4063,219.8495 Q23.1094,219.8495 23.75,220.0058 Q24.4063,220.162 24.9688,220.4589 L24.9688,223.1777 Q24.3438,222.5995 23.75,222.3339 Q23.1563,222.0527 22.5313,222.0527 Q21.1875,222.0527 20.5,223.1308 Q19.8125,224.1933 19.8125,226.287 Q19.8125,228.3808 20.5,229.4589 Q21.1875,230.5214 22.5313,230.5214 Q23.1563,230.5214 23.75,230.2558 Q24.3438,229.9745 24.9688,229.3964 L24.9688,232.1152 Z " fill="#000000"/><text fill="#D9B8FF" font-family="Helvetica" font-size="17" lengthAdjust="spacing" textLength="223" x="41" y="232.3598">gcp_sql_database_instance</text></g><!--class gcp_ssl_certificate--><g id="elem_gcp_ssl_certificate"><rect codeLine="24" fill="#3D176E" height="39.7891" id="gcp_ssl_certificate" rx="2.5" ry="2.5" style="stroke:#000D19;stroke-width:0.5;" width="192" x="186.5" y="106.79"/><ellipse cx="201.5" cy="126.6845" fill="#ADD1B2" rx="11" ry="11" style="stroke:#181818;stroke-width:1.0;"/><path d="M204.4688,132.3252 Q203.8906,132.622 203.25,132.7627 Q202.6094,132.9189 201.9063,132.9189 Q199.4063,132.9189 198.0781,131.2783 Q196.7656,129.622 196.7656,126.497 Q196.7656,123.372 198.0781,121.7158 Q199.4063,120.0595 201.9063,120.0595 Q202.6094,120.0595 203.25,120.2158 Q203.9063,120.372 204.4688,120.6689 L204.4688,123.3877 Q203.8438,122.8095 203.25,122.5439 Q202.6563,122.2627 202.0313,122.2627 Q200.6875,122.2627 200,123.3408 Q199.3125,124.4033 199.3125,126.497 Q199.3125,128.5908 200,129.6689 Q200.6875,130.7314 202.0313,130.7314 Q202.6563,130.7314 203.25,130.4658 Q203.8438,130.1845 204.4688,129.6064 L204.4688,132.3252 Z " fill="#000000"/><text fill="#D9B8FF" font-family="Helvetica" font-size="17" lengthAdjust="spacing" textLength="150" x="220.5" y="132.5698">gcp_ssl_certificate</text></g><!--class gcp_target_https_proxy--><g id="elem_gcp_target_https_proxy"><rect codeLine="26" fill="#3D176E" height="39.7891" id="gcp_target_https_proxy" rx="2.5" ry="2.5" style="stroke:#000D19;stroke-width:0.5;" width="238" x="307.5" y="206.58"/><ellipse cx="322.5" cy="226.4745" fill="#ADD1B2" rx="11" ry="11" style="stroke:#181818;stroke-width:1.0;"/><path d="M325.4688,232.1152 Q324.8906,232.412 324.25,232.5527 Q323.6094,232.7089 322.9063,232.7089 Q320.4063,232.7089 319.0781,231.0683 Q317.7656,229.412 317.7656,226.287 Q317.7656,223.162 319.0781,221.5058 Q320.4063,219.8495 322.9063,219.8495 Q323.6094,219.8495 324.25,220.0058 Q324.9063,220.162 325.4688,220.4589 L325.4688,223.1777 Q324.8438,222.5995 324.25,222.3339 Q323.6563,222.0527 323.0313,222.0527 Q321.6875,222.0527 321,223.1308 Q320.3125,224.1933 320.3125,226.287 Q320.3125,228.3808 321,229.4589 Q321.6875,230.5214 323.0313,230.5214 Q323.6563,230.5214 324.25,230.2558 Q324.8438,229.9745 325.4688,229.3964 L325.4688,232.1152 Z " fill="#000000"/><text fill="#D9B8FF" font-family="Helvetica" font-size="17" lengthAdjust="spacing" textLength="196" x="341.5" y="232.3598">gcp_target_https_proxy</text></g><!--class gcp_target_ssl_proxy--><g id="elem_gcp_target_ssl_proxy"><rect codeLine="28" fill="#3D176E" height="39.7891" id="gcp_target_ssl_proxy" rx="2.5" ry="2.5" style="stroke:#000D19;stroke-width:0.5;" width="216" x="174.5" y="7"/><ellipse cx="189.5" cy="26.8945" fill="#ADD1B2" rx="11" ry="11" style="stroke:#181818;stroke-width:1.0;"/><path d="M192.4688,32.5352 Q191.8906,32.832 191.25,32.9727 Q190.6094,33.1289 189.9063,33.1289 Q187.4063,33.1289 186.0781,31.4883 Q184.7656,29.832 184.7656,26.707 Q184.7656,23.582 186.0781,21.9258 Q187.4063,20.2695 189.9063,20.2695 Q190.6094,20.2695 191.25,20.4258 Q191.9063,20.582 192.4688,20.8789 L192.4688,23.5977 Q191.8438,23.0195 191.25,22.7539 Q190.6563,22.4727 190.0313,22.4727 Q188.6875,22.4727 188,23.5508 Q187.3125,24.6133 187.3125,26.707 Q187.3125,28.8008 188,29.8789 Q188.6875,30.9414 190.0313,30.9414 Q190.6563,30.9414 191.25,30.6758 Q191.8438,30.3945 192.4688,29.8164 L192.4688,32.5352 Z " fill="#000000"/><text fill="#D9B8FF" font-family="Helvetica" font-size="17" lengthAdjust="spacing" textLength="174" x="208.5" y="32.7798">gcp_target_ssl_proxy</text></g><!--link gcp_ssl_certificate to gcp_sql_database_instance--><g id="link_gcp_ssl_certificate_gcp_sql_database_instance"><path codeLine="30" d="M254.25,147.01 C230.74,163.08 197.26,185.98 172.52,202.9 " fill="none" id="gcp_ssl_certificate-to-gcp_sql_database_instance" style="stroke:#1A83AF;stroke-width:2.0;"/><polygon fill="#1A83AF" points="168.69,206.2,178.3754,204.4131,172.8148,203.374,173.8538,197.8134,168.69,206.2" style="stroke:#1A83AF;stroke-width:2.0;"/></g><!--link gcp_ssl_certificate to gcp_target_https_proxy--><g id="link_gcp_ssl_certificate_gcp_target_https_proxy"><path codeLine="31" d="M310.95,147.01 C334.62,163.08 368.34,185.98 393.25,202.9 " fill="none" id="gcp_ssl_certificate-to-gcp_target_https_proxy" style="stroke:#1A83AF;stroke-width:2.0;"/><polygon fill="#1A83AF" points="397.11,206.2,391.9264,197.8256,392.9786,203.3838,387.4204,204.4359,397.11,206.2" style="stroke:#1A83AF;stroke-width:2.0;"/></g><!--link gcp_target_ssl_proxy to gcp_ssl_certificate--><g id="link_gcp_target_ssl_proxy_gcp_ssl_certificate"><path codeLine="32" d="M282.5,47.22 C282.5,62.49 282.5,83.92 282.5,100.53 " fill="none" id="gcp_target_ssl_proxy-to-gcp_ssl_certificate" style="stroke:#1A83AF;stroke-width:2.0;"/><polygon fill="#1A83AF" points="282.5,105.41,286.5,96.41,282.5,100.41,278.5,96.41,282.5,105.41" style="stroke:#1A83AF;stroke-width:2.0;"/></g><!--SRC=[ZP1DJy9048Rl_8fDE9DGYG8Naqf2z4ACU3EccUxEjXlQtJexY6Zyxr8_bxQ0rtsVVUUPoOr2WMN5Mr5YcIBvdbyPMm51AM8Yjvcvmf7eQmrwD6w6SsVv9B204iKr5i_8HaAJkC-DN5dqNfm5qHN8LKPkRTLNFHDOlulGSa3D2l0-PYQJhXa36JLD9retoMPfVwIYyGMsC4SAwHiP3eSgcZQHawEExlrBBCqhYYWysi8njZHR8pwfevOr4KYs5lt93phUWbB6Pk8yUBlxSYABjFU-p46vJKrhA7munZCIEjvME6jjXTE9qkDE-EOGBElBYKnMYNyg4WKCANXCZFKCLg9uwxs7Z2yIYSH6xtRZPif06NAICrS-gSYzRBk1kkKlxkeTFFIZU3AAvu-3oyDo__lQjkfrkhHdxZT_0000]--></g></svg>

<svg xmlns="http://www.w3.org/2000/svg" width="552" height="252" preserveAspectRatio="none" style="width:552px;height:252px"><rect width="265" height="39.789" x="7" y="206.58" fill="#3D176E" rx="2.5" ry="2.5" style="stroke:#000d19;stroke-width:.5"/><circle cx="22" cy="226.475" r="11" fill="#ADD1B2" style="stroke:#181818;stroke-width:1"/><path d="M24.969 232.115q-.578.297-1.219.438-.64.156-1.344.156-2.5 0-3.828-1.64-1.312-1.657-1.312-4.782t1.312-4.781q1.328-1.656 3.828-1.656.703 0 1.344.156.656.156 1.219.453v2.719q-.625-.578-1.219-.844-.594-.281-1.219-.281-1.343 0-2.031 1.078-.688 1.062-.688 3.156 0 2.094.688 3.172.688 1.062 2.031 1.062.625 0 1.219-.265.594-.281 1.219-.86v2.72Z"/><text x="41" y="232.36" fill="#D9B8FF" font-family="Helvetica" font-size="17" textLength="223">gcp_sql_database_instance</text><rect width="192" height="39.789" x="186.5" y="106.79" fill="#3D176E" rx="2.5" ry="2.5" style="stroke:#000d19;stroke-width:.5"/><circle cx="201.5" cy="126.684" r="11" fill="#ADD1B2" style="stroke:#181818;stroke-width:1"/><path d="M204.469 132.325q-.578.297-1.219.438-.64.156-1.344.156-2.5 0-3.828-1.64-1.312-1.657-1.312-4.782t1.312-4.781q1.328-1.656 3.828-1.656.703 0 1.344.156.656.156 1.219.453v2.719q-.625-.579-1.219-.844-.594-.281-1.219-.281-1.344 0-2.031 1.078-.688 1.062-.688 3.156 0 2.094.688 3.172.688 1.062 2.031 1.062.625 0 1.219-.265.594-.281 1.219-.86v2.72Z"/><text x="220.5" y="132.57" fill="#D9B8FF" font-family="Helvetica" font-size="17" textLength="150">gcp_ssl_certificate</text><rect width="238" height="39.789" x="307.5" y="206.58" fill="#3D176E" rx="2.5" ry="2.5" style="stroke:#000d19;stroke-width:.5"/><circle cx="322.5" cy="226.475" r="11" fill="#ADD1B2" style="stroke:#181818;stroke-width:1"/><path d="M325.469 232.115q-.578.297-1.219.438-.64.156-1.344.156-2.5 0-3.828-1.64-1.312-1.657-1.312-4.782t1.312-4.781q1.328-1.656 3.828-1.656.703 0 1.344.156.656.156 1.219.453v2.719q-.625-.578-1.219-.844-.594-.281-1.219-.281-1.344 0-2.031 1.078-.688 1.062-.688 3.156 0 2.094.688 3.172.688 1.062 2.031 1.062.625 0 1.219-.265.594-.281 1.219-.86v2.72Z"/><text x="341.5" y="232.36" fill="#D9B8FF" font-family="Helvetica" font-size="17" textLength="196">gcp_target_https_proxy</text><rect width="216" height="39.789" x="174.5" y="7" fill="#3D176E" rx="2.5" ry="2.5" style="stroke:#000d19;stroke-width:.5"/><circle cx="189.5" cy="26.895" r="11" fill="#ADD1B2" style="stroke:#181818;stroke-width:1"/><path d="M192.469 32.535q-.578.297-1.219.438-.64.156-1.344.156-2.5 0-3.828-1.64-1.312-1.657-1.312-4.782t1.312-4.781q1.328-1.656 3.828-1.656.703 0 1.344.156.656.156 1.219.453v2.719q-.625-.578-1.219-.844-.594-.281-1.219-.281-1.344 0-2.031 1.078-.688 1.062-.688 3.156 0 2.094.688 3.172.688 1.062 2.031 1.062.625 0 1.219-.265.594-.281 1.219-.86v2.72Z"/><text x="208.5" y="32.78" fill="#D9B8FF" font-family="Helvetica" font-size="17" textLength="174">gcp_target_ssl_proxy</text><path fill="none" d="M254.25 147.01c-23.51 16.07-56.99 38.97-81.73 55.89" style="stroke:#1a83af;stroke-width:2"/><path fill="#1A83AF" d="m168.69 206.2 9.685-1.787-5.56-1.039 1.039-5.56-5.164 8.386z" style="stroke:#1a83af;stroke-width:2"/><path fill="none" d="M310.95 147.01c23.67 16.07 57.39 38.97 82.3 55.89" style="stroke:#1a83af;stroke-width:2"/><path fill="#1A83AF" d="m397.11 206.2-5.184-8.374 1.053 5.558-5.559 1.052 9.69 1.764z" style="stroke:#1a83af;stroke-width:2"/><path fill="none" d="M282.5 47.22v53.31" style="stroke:#1a83af;stroke-width:2"/><path fill="#1A83AF" d="m282.5 105.41 4-9-4 4-4-4 4 9z" style="stroke:#1a83af;stroke-width:2"/></svg>
